assets/Crying cat/Flat/crying_cat_flat.svg

<svg width="32" height="32" viewBox="0 0 32 32" fill="none" xmlns="http://www.w3.org/2000/svg">
<path d="M4 25.942C4 28.1739 5.76327 30 7.91837 30H24.0816C26.2367 30 28 28.0725 28 25.8406V6.4297C28 5.1297 26.4099 4.5297 25.5155 5.4297L20.9736 10H11.1617L6.5 5.4297C5.6 4.5297 4 5.1297 4 6.4297V25.942Z" fill="#FFB02E"/>
<path d="M9.00005 10.9265L6.20005 13.5265C5.70005 14.0265 4.80005 13.6265 4.80005 12.9265V7.72648C4.80005 7.12648 5.70005 6.72648 6.20005 7.22648L9.00005 9.82648C9.30005 10.1265 9.30005 10.6265 9.00005 10.9265Z" fill="#FF822D"/>
<path d="M23.05 10.9265L25.85 13.5265C26.35 14.0265 27.25 13.6265 27.25 12.9265V7.72648C27.25 7.12648 26.35 6.72648 25.85 7.22648L23.05 9.82648C22.75 10.1265 22.75 10.6265 23.05 10.9265Z" fill="#FF822D"/>
<path d="M2.72372 20.0528C2.47673 19.9293 2.17639 20.0294 2.0529 20.2764C1.9294 20.5234 2.02951 20.8237 2.2765 20.9472L6.2765 22.9472C6.52349 23.0707 6.82383 22.9706 6.94732 22.7236C7.07082 22.4766 6.97071 22.1763 6.72372 22.0528L2.72372 20.0528Z" fill="#FF6723"/>
<path d="M2.72372 26.9472C2.47673 27.0707 2.17639 26.9706 2.0529 26.7236C1.9294 26.4766 2.02951 26.1763 2.2765 26.0528L6.2765 24.0528C6.52349 23.9293 6.82383 24.0294 6.94732 24.2764C7.07082 24.5234 6.97071 24.8237 6.72372 24.9472L2.72372 26.9472Z" fill="#FF6723"/>
<path d="M29.9473 20.2764C29.8238 20.0294 29.5235 19.9293 29.2765 20.0528L25.2765 22.0528C25.0295 22.1763 24.9294 22.4766 25.0529 22.7236C25.1764 22.9706 25.4767 23.0707 25.7237 22.9472L29.7237 20.9472C29.9707 20.8237 30.0708 20.5234 29.9473 20.2764Z" fill="#FF6723"/>
<path d="M29.2765 26.9472C29.5235 27.0707 29.8238 26.9706 29.9473 26.7236C30.0708 26.4766 29.9707 26.1763 29.7237 26.0528L25.7237 24.0528C25.4767 23.9293 25.1764 24.0294 25.0529 24.2764C24.9294 24.5234 25.0295 24.8237 25.2765 24.9472L29.2765 26.9472Z" fill="#FF6723"/>
<path d="M12.6213 17.0149C12.8892 17.0819 13.052 17.3534 12.9851 17.6213C12.8392 18.2046 12.5727 18.6457 12.2151 18.9507C11.8588 19.2546 11.445 19.3955 11.0498 19.435C10.6581 19.4742 10.2759 19.4153 9.95546 19.3117C9.64377 19.2108 9.34567 19.0528 9.14645 18.8535C8.95118 18.6583 8.95118 18.3417 9.14645 18.1464C9.34171 17.9512 9.65829 17.9512 9.85355 18.1464C9.90433 18.1972 10.0437 18.2892 10.2633 18.3602C10.4741 18.4284 10.7169 18.4633 10.9502 18.44C11.18 18.417 11.3912 18.3391 11.5662 18.1899C11.7398 18.0418 11.9108 17.7954 12.0149 17.3787C12.0819 17.1108 12.3534 16.948 12.6213 17.0149Z" fill="#402A32"/>
<path d="M16 24.5C14.6098 24.5 13.6831 25.3767 13.416 25.7773C13.2628 26.0071 12.9524 26.0692 12.7226 25.916C12.4929 25.7628 12.4308 25.4524 12.584 25.2226C12.9456 24.6803 13.9679 23.709 15.5 23.5291V21C15.5 20.7239 15.7239 20.5 16 20.5C16.2761 20.5 16.5 20.7239 16.5 21V23.5291C18.0321 23.709 19.0544 24.6803 19.416 25.2226C19.5692 25.4524 19.5071 25.7628 19.2773 25.916C19.0476 26.0692 18.7372 26.0071 18.584 25.7773C18.3169 25.3767 17.3902 24.5 16 24.5Z" fill="#402A32"/>
<path d="M19.0149 17.6213C18.948 17.3534 19.1108 17.0819 19.3787 17.0149C19.6466 16.948 19.9181 17.1108 19.9851 17.3787C20.0892 17.7954 20.2602 18.0418 20.4338 18.1899C20.6088 18.3391 20.82 18.417 21.0498 18.44C21.2831 18.4633 21.5259 18.4284 21.7367 18.3602C21.9563 18.2892 22.0957 18.1972 22.1464 18.1464C22.3417 17.9512 22.6583 17.9512 22.8536 18.1464C23.0488 18.3417 23.0488 18.6583 22.8536 18.8535C22.6543 19.0528 22.3562 19.2108 22.0445 19.3117C21.7241 19.4153 21.3419 19.4742 20.9502 19.435C20.555 19.3955 20.1412 19.2546 19.7849 18.9507C19.4273 18.6457 19.1608 18.2046 19.0149 17.6213Z" fill="#402A32"/>
<path d="M17.0429 20H14.9571C14.5117 20 14.2886 20.5386 14.6036 20.8536L15.6465 21.8964C15.8417 22.0917 16.1583 22.0917 16.3536 21.8964L17.3965 20.8536C17.7114 20.5386 17.4884 20 17.0429 20Z" fill="#F70A8D"/>
<path d="M8 23C8 21.8954 8.89543 21 10 21C11.1046 21 12 21.8954 12 23V26C12 27.1046 11.1046 28 10 28C8.89543 28 8 27.1046 8 26V23Z" fill="#5092FF"/>
</svg>

<svg xmlns="http://www.w3.org/2000/svg" width="32" height="32" fill="none"><path fill="#FFB02E" d="M4 25.942C4 28.174 5.763 30 7.918 30h16.164C26.237 30 28 28.073 28 25.84V6.43c0-1.3-1.59-1.9-2.485-1L20.974 10h-9.812L6.5 5.43c-.9-.9-2.5-.3-2.5 1v19.512Z"/><path fill="#FF822D" d="m9 10.927-2.8 2.6c-.5.5-1.4.1-1.4-.6v-5.2c0-.6.9-1 1.4-.5l2.8 2.6c.3.3.3.8 0 1.1ZM23.05 10.927l2.8 2.6c.5.5 1.4.1 1.4-.6v-5.2c0-.6-.9-1-1.4-.5l-2.8 2.6c-.3.3-.3.8 0 1.1Z"/><path fill="#FF6723" d="M2.724 20.053a.5.5 0 1 0-.448.894l4 2a.5.5 0 1 0 .448-.894l-4-2ZM2.724 26.947a.5.5 0 1 1-.448-.894l4-2a.5.5 0 1 1 .448.894l-4 2ZM29.947 20.276a.5.5 0 0 0-.67-.223l-4 2a.5.5 0 1 0 .447.894l4-2a.5.5 0 0 0 .223-.67ZM29.276 26.947a.5.5 0 1 0 .448-.894l-4-2a.5.5 0 1 0-.448.894l4 2Z"/><path fill="#402A32" d="M12.621 17.015a.5.5 0 0 1 .364.606c-.146.584-.412 1.025-.77 1.33-.356.304-.77.444-1.165.484-.392.04-.774-.02-1.095-.123-.311-.101-.61-.26-.809-.459a.5.5 0 1 1 .708-.707c.05.051.19.143.41.214.21.068.453.103.686.08.23-.023.441-.1.616-.25.174-.148.345-.395.449-.811a.5.5 0 0 1 .606-.364ZM16 24.5c-1.39 0-2.317.877-2.584 1.277a.5.5 0 1 1-.832-.554c.362-.543 1.384-1.514 2.916-1.694V21a.5.5 0 0 1 1 0v2.53c1.532.179 2.554 1.15 2.916 1.693a.5.5 0 1 1-.832.554c-.267-.4-1.194-1.277-2.584-1.277ZM19.015 17.621a.5.5 0 0 1 .97-.242c.104.416.275.663.449.81.175.15.386.228.616.251.233.023.476-.012.687-.08.22-.07.359-.163.41-.214a.5.5 0 0 1 .707.707c-.2.2-.498.358-.81.459-.32.103-.702.162-1.094.123a2.094 2.094 0 0 1-1.165-.484c-.358-.305-.624-.746-.77-1.33Z"/><path fill="#F70A8D" d="M17.043 20h-2.086a.5.5 0 0 0-.353.854l1.043 1.042a.5.5 0 0 0 .707 0l1.043-1.042a.5.5 0 0 0-.354-.854Z"/><path fill="#5092FF" d="M8 23a2 2 0 1 1 4 0v3a2 2 0 1 1-4 0v-3Z"/></svg>
